Hatter-kde-dark/actions/24/view-pim-notes.svg

<?xml version="1.0" encoding="UTF-8"?>
<svg viewBox="0 0 24 24" xmlns="http://www.w3.org/2000/svg">
 <defs id="defs3051">
  <style id="current-color-scheme" type="text/css">.ColorScheme-Text {
        color:#dedede;
      }</style>
 </defs>
 <path class="ColorScheme-Text" d="m4 4v2 1 13h1 8 2 2 2 1v-3-2-9-2h-1v1h-2v-1h-1v1h-2v-1h-1v1h-2v-1h-1v1h-2v-1h-1v1h-2v-1h-1zm1 3h14v1 1 1 1 5 2 1h-1-2-3-8v-8-1-1-1-1zm2 2v1h10v-1h-10zm0 3v1h6v-1h-6zm0 3v1h8v-1h-8zm8 2v1h2v-1h-2z" fill="currentColor"/>
</svg>

<svg xmlns="http://www.w3.org/2000/svg" viewBox="0 0 24 24">
  <defs id="defs3051">
    <style type="text/css" id="current-color-scheme">
      .ColorScheme-Text {
        color:#dedede;
      }
      </style>
  </defs>
 <path style="fill:currentColor;fill-opacity:1;stroke:none" 
     d="M 4 4 L 4 6 L 4 7 L 4 20 L 5 20 L 13 20 L 15 20 L 17 20 L 19 20 L 20 20 L 20 17 L 20 15 L 20 6 L 20 4 L 19 4 L 19 5 L 17 5 L 17 4 L 16 4 L 16 5 L 14 5 L 14 4 L 13 4 L 13 5 L 11 5 L 11 4 L 10 4 L 10 5 L 8 5 L 8 4 L 7 4 L 7 5 L 5 5 L 5 4 L 4 4 z M 5 7 L 19 7 L 19 8 L 19 9 L 19 10 L 19 11 L 19 16 L 19 18 L 19 19 L 18 19 L 16 19 L 13 19 L 5 19 L 5 11 L 5 10 L 5 9 L 5 8 L 5 7 z M 7 9 L 7 10 L 17 10 L 17 9 L 7 9 z M 7 12 L 7 13 L 13 13 L 13 12 L 7 12 z M 7 15 L 7 16 L 15 16 L 15 15 L 7 15 z M 15 17 L 15 18 L 17 18 L 17 17 L 15 17 z "
     class="ColorScheme-Text"
     />
</svg>
